!!!!SEGMENT: d-b--slg-bohn-ms-mus-111--001-026_jarzebski-adam--canzoni-e-concerti-26-canzon-terta.krn
!!!cenid: 16xx:1799
!!!COM: Jarzębski, Adam
!!!COM-rismID: pe30017782
!!!CDT:
!!!CNT:
!!!GTL: Canzoni e Concerti
!!!OTL: 26. Canzon Terta
!!!OMV: 026
!!!PDT: 1627
!!!AGN:
!!!SMS-siglum: D-B
!!!SMS-shelfmark: Slg Bohn Ms.mus. 111
!!!SMS-shelfwork: 001-026 G
!!!SMS-variant:
!!!SMS-altvar:
!!!NIFC-rismSourceID: 1001062014
!!!NIFC-rismChildID: 1001062014
!!!NIFC-islandoraID: none
!!!URL-pdf-islandora:
!!!URL-scan: https://digital.staatsbibliothek-berlin.de/werkansicht/?PPN=PPN1049147219 @EN{Scan on Staatsbibliothek zu Berlin Website} @PL{Skany w portalu Staatsbibliothek zu Berlin}
!!!IIIF:
!!!ONB-nifc: UWAGA: Prima vox: s. 40, Seconda vox: s. 100, Bassus sive Vox Tertia: s. 139, Basso: s. 184, Basso contunio: s. 215. Uwaga: proszę wpisywać partie tylko występujące w danym koncercie i nazywać partie wg określeń podawanych przy danym utworze. Kody instr. dla humdrumowców podane zostaną na forum.
!!!AIN: 1 bass 2 soprn 1 vox
!!!key: a
**kern	**fba	**kern	**kern	**kern	**kern
*part5	*part5	*part4	*part3	*part2	*part1
*staff5	*	*staff4	*staff3	*staff2	*staff1
*I"[Organo]	*	*I"Baſso.	*I"Tertia Vox.	*I"Secunda Vox.	*I"Prima Vox.
*I'bc	*	*I'B	*I'V 3	*I'V 2	*I'V 1
*	*	*ICvox	*ICvox	*ICvox	*ICvox
*	*	*Ibass	*Ivox	*Isoprn	*Isoprn
*IGcont	*	*	*	*	*
*clefG2	*	*clefC4	*clefC3	*clefC1	*clefG2
*	*	*mclefGv2	*mclefG2	*mclefG2	*
*k[]	*	*k[]	*k[]	*k[]	*k[]
*a:	*	*a:	*a:	*a:	*a:
*M2/2	*	*M2/2	*M2/2	*M2/2	*M2/2
*met(C|)	*	*met(C|)	*met(C|)	*met(C|)	*met(C|)
=1-	=1-	=1-	=1-	=1-	=1-
!!LO:TX:t=P:problem:all\right or middle	!	!	!	!
4ee\	.	00r	0r	1r	4ee\
8ee\L	.	.	.	.	8ee\L
8ee\J	.	.	.	.	8ee\J
4cc\	.	.	.	.	4cc\
!LO:TX:t=P:problem:kreska pseudotaktowa	!	!	!	!	!LO:TX:t=P:problem:kreska pseudotaktowa
4a/	.	.	.	.	4a/
*clefC1	*	*	*	*	*
=2-	=2-	=2-	=2-	=2-	=2-
4a\	.	.	.	4a\	4r
8a\L	.	.	.	8a\L	4ee\
8a\J	.	.	.	8a\J	.
*	*	*	*	*	*2\right
4f/	.	.	.	4f/	2ff\
!LO:TX:t=P:problem:kreska pseudotaktowa	!	!	!	!LO:TX:t=P:problem:kreska pseudotaktowa	!
4d/	.	.	.	4d/	.
=3-	=3-	=3-	=3-	=3-	=3-
2a\	.	.	1r	4r	4ee\
.	.	.	.	4a\	2aa\
*2\right	*	*	*	*2\right	*
2b-X\	7:6	.	.	2b-X\	.
!	!	!	!	!	!LO:TX:t=P:problem:kreska pseudotaktowa
.	.	.	.	.	4gg\
=4-	=4-	=4-	=4-	=4-	=4-
4a\	.	.	2r	4a\	4aa\
4dd\	.	.	.	2dd\	4ff\
*clefC3	*	*	*	*	*
4a\	4	.	4a\	.	2ee\
8a\L	#	.	8a\L	4cc#X\	.
!LO:TX:t=P:problem:kreska pseudotaktowa	!	!	!	!	!
8a\J	.	.	8a\J	.	.
=5-	=5-	=5-	=5-	=5-	=5-
4f\	6	0r	4f\	2dd\	4r
4d\	.	.	4d\	.	4ff\
*	*	*	*2\right	*	*
2a\	.	.	2a\	4r	4ee\
.	.	.	.	4cc#X\	2aa\
=6-	=6-	=6-	=6-	=6-	=6-
2b-X\	7:6	.	2b-X\	2dd\	.
.	.	.	.	.	4gg\
!	!	!	!	!	!LO:TX:t=P:problem:kreska pseudotaktowa
2a\	.	.	1a\	2ccny\	2aa\
*clefC4	*	*	*	*	*
*custos:e	*	*	*	*	*
!LO:LB:g=original	!	!	!	!	!
=7-	=7-	=7-	=7-	=7-	=7-
2e\	4	2r	.	1bny	2r
4e\	#	4e\	2g#X\	.	4r
8e\L	.	8e\L	.	.	4ee\
8e\J	.	8e\J	.	.	.
=8-	=8-	=8-	=8-	=8-	=8-
4c\	.	4c\	4r	2a\	8ee\L
.	.	.	.	.	8ee\J
4A/	.	4A/	4a\	.	4cc\
4d\	.	4r	4f\	2r	4a/
*	*	*	*	*	*custos:ee
!LO:TX:t=P:problem:kreska pseudotaktowa	!	!	!	!	!LO:LB:g=original
4e\	.	4e\	4gny\	.	2ee\
=9-	=9-	=9-	=9-	=9-	=9-
*	*	*2\right	*	*	*
2f\	7:6	2f\	2a\	4r	.
.	.	.	.	4a\	4dd\
2e\	5:6	2e\	2g\	4b\	2ee\
.	.	.	.	4cc\	.
*	*	*	*	*custos:dd	*
!	!	!	!	!LO:LB:g=original	!
=10-	=10-	=10-	=10-	=10-	=10-
2d\	.	2d\	4f\	2dd\	2ff\
.	.	.	4g\	.	.
!LO:TX:t=P:problem:kreska pseudotaktowa	!	!	!	!	!
2A/	.	2A/	1a\	2cc\	2ee\
=11-	=11-	=11-	=11-	=11-	=11-
1e	4#r	1e	.	1b	2ee\
.	.	.	2g#X\	.	8r
.	.	.	.	.	8ee\L
.	.	.	.	.	8ee\
!	!	!	!	!	!LO:TX:t=P:problem:kreska pseudotaktowa
.	.	.	.	.	8dd\J
=12-	=12-	=12-	=12-	=12-	=12-
2A/	#	2A/	2a\	8r	2cc#X\
.	.	.	.	8a\L	.
.	.	.	.	8a\	.
.	.	.	.	8g\J	.
!LO:TX:t=P:problem:kreska pseudotaktowa	!	!	!	!	!
2d\	#	2r	2r	2f#X/	8r
.	.	.	.	.	8dd\L
.	.	.	.	.	8dd\
.	.	.	.	.	8cc#\J
*	*	*	*custos:e	*	*
!	!	!	!LO:LB:g=original	!	!
=13-	=13-	=13-	=13-	=13-	=13-
4e\	#	1r	2r	4g#X/	4b/
4A/	.	.	.	2a\	4ccny\
2e\	4#r	.	8r	.	2b/
.	.	.	8e\L	.	.
!	!	!	!	!LO:TX:t=P:problem:# below	!
.	.	.	8e\	4g#X/	.
.	.	.	8d\J	.	.
=14-	=14-	=14-	=14-	=14-	=14-
4.A/	#	8r	2c#X/	1a	1a
.	.	8A/L	.	.	.
.	.	8A/	.	.	.
8G/	.	8G/J	.	.	.
!LO:TX:t=P:problem:kreska pseudotaktowa	!	!	!	!	!
2F#X/	6	2F#X/	8r	.	.
.	.	.	8d\L	.	.
.	.	.	8d\	.	.
.	.	.	8c#\J	.	.
*	*	*custos:G#	*	*	*
!	!	!LO:LB:g=original	!	!	!
=15-	=15-	=15-	=15-	=15-	=15-
4G#X/	.	4G#X/	4B/	1r	2r
2A/	.	2A/	4cny/	.	.
.	.	.	2B/	.	8r
.	.	.	.	.	8ee\L
4G#X/	6	4G#X/	.	.	8ee\
!	!	!	!	!	!LO:TX:t=P:problem:kreska pseudotaktowa
.	.	.	.	.	8dd\J
=16-	=16-	=16-	=16-	=16-	=16-
2A/	#	2A/	2A/	8r	2cc#X\
.	.	.	.	8a\L	.
.	.	.	.	8a\	.
.	.	.	.	8gny\J	.
!LO:TX:t=P:problem:kreska pseudotaktowa	!	!	!	!	!
2D/	#	2r	2r	2f#X/	8r
.	.	.	.	.	8dd\L
.	.	.	.	.	8dd\
.	.	.	.	.	8cc#\J
=17-	=17-	=17-	=17-	=17-	=17-
4E/	#	4r	2r	4g#X/	4b/
4C/	6	4C/	.	2a\	4ccny\
4D/	6	4D/	8r	.	2b/
.	.	.	8B/	.	.
!LO:TX:t=P:problem:kreska pseudotaktowa	!	!	!	!	!
4E/	#	4E/	8e\L	4g#X/	.
.	.	.	8d\J	.	.
*custos:A	*	*	*	*	*
!LO:LB:g=original	!	!	!	!	!
=18-	=18-	=18-	=18-	=18-	=18-
4.A/	#	8AA/L	2c#X/	2a\	2a/
.	.	8A/	.	.	.
.	.	8A/	.	.	.
8Gny/	.	8Gny/J	.	.	.
!LO:TX:t=P:problem:kreska pseudotaktowa	!	!	!	!	!
2F#X/	6	2F#X/	2d\	2.dd\	4r
.	.	.	.	.	4aa\
=19-	=19-	=19-	=19-	=19-	=19-
2G/	-	2G/	8r	.	2bb-X\
.	.	.	8gny\L	.	.
.	.	.	8g\	4dd\	.
.	.	.	8f\J	.	.
2A/	#	2A/	8e\L	2cc#X\	2aa\
.	.	.	8a\	.	.
.	.	.	8a\	.	.
.	.	.	8g\J	.	.
*	*	*	*	*	*custos:aa
!	!	!	!	!	!LO:LB:g=original
=20-	=20-	=20-	=20-	=20-	=20-
!LO:TX:t=P:problem:kreska pseudotaktowa	!	!	!	!	!
1D	#	1D	4.f#X\	8dd\L	2aa\
.	.	.	.	8a\	.
.	.	.	.	8a\	.
.	.	.	8e\	8gny\J	.
.	.	.	2d\	2f#X/	8r
.	.	.	.	.	8aa\L
.	.	.	.	.	8aa\
!	!	!	!	!	!LO:TX:t=P:problem:kreska pseudotaktowa
.	.	.	.	.	8gg\J
*	*	*	*	*custos:dd	*
!	!	!	!	!LO:LB:g=original	!
=21-	=21-	=21-	=21-	=21-	=21-
2d\	#	1r	2d\	8r	2ff#X\
.	.	.	.	8dd\L	.
.	.	.	.	8dd\	.
.	.	.	.	8ccny\J	.
2G/	.	.	2r	2b\	8r
.	.	.	.	.	8gg\L
.	.	.	.	.	8gg\
!	!	!	!	!	!LO:TX:t=P:problem:kreska pseudotaktowa
.	.	.	.	.	8ff#\J
*	*	*	*custos:e	*	*
!	!	!	!LO:LB:g=original	!	!
=22-	=22-	=22-	=22-	=22-	=22-
4A/	#	4r	2r	4cc#X\	4ee\
4Fny/	6	4Fny/	.	2dd\	4ffny\
4G/	6	4G/	8r	.	2ee\
.	.	.	8e\L	.	.
!LO:TX:t=P:problem:kreska pseudotaktowa	!	!	!	!LO:TX:t=P:problem:# above	!
4A/	#	4A/	8a\	4cc#Xi\	.
.	.	.	8g\J	.	.
=23-	=23-	=23-	=23-	=23-	=23-
!	!	!LO:TX:t=P:problem:mixed beam	!	!	!
4.d\	#	8D/L	2f#X\	1dd\	1dd
.	.	8d\	.	.	.
.	.	8d\	.	.	.
8c\	.	8c\J	.	.	.
!	!	!LO:TX:t=P:problem:kreska pseudotaktowa	!	!	!
2B\	6	2B\	8r	.	.
.	.	.	8g\L	.	.
.	.	.	8g\	.	.
.	.	.	8f#\J	.	.
*	*	*custos:c#	*	*	*
!	!	!LO:LB:g=original	!	!	!
=24-	=24-	=24-	=24-	=24-	=24-
4c#X\	.	4c#X\	4e\	2r	4r
2d\	.	2d\	4fny\	.	4ff\
.	.	.	2e\	8r	4gg\
.	.	.	.	8e/L	.
!LO:TX:t=P:problem:kreska pseudotaktowa	!	!	!	!	!
4c#X\	6	4c#X\	.	8a/	4aa\
.	.	.	.	8g/J	.
=25-	=25-	=25-	=25-	=25-	=25-
2d\	#	1d	1d	2f#X/	8dd\L
.	.	.	.	.	8aa\
.	.	.	.	.	8aa\
.	.	.	.	.	8gg\J
!	!	!	!	!	!LO:TX:t=P:problem:kreska pseudotaktowa
2D/	#	.	.	8r	2ff#X\
.	.	.	.	8dd\L	.
.	.	.	.	8dd\	.
.	.	.	.	8ccny\J	.
=26-	=26-	=26-	=26-	=26-	=26-
4.G/	.	8r	2r	2b\	2r
.	.	8G/L	.	.	.
.	.	8G/	.	.	.
8F/	.	8F/J	.	.	.
!LO:TX:t=P:problem:kreska pseudotaktowa	!	!	!	!	!
2E/	.	2E/	8r	2r	8r
.	.	.	8e\L	.	8gg\L
.	.	.	8e\	.	8gg\
!	!	!	!	!	!LO:TX:t=P:problem:kreska pseudotaktowa
.	.	.	8d\J	.	8ffny\J
=27-	=27-	=27-	=27-	=27-	=27-
2cny\	.	2r	8cny\L	2r	2ee\
.	.	.	8e\	.	.
.	.	.	8e\	.	.
.	.	.	8d\J	.	.
4.A/	.	8r	2c/	8r	2r
.	.	8A/L	.	8cc\L	.
.	.	8A/	.	8cc\	.
!	!	!	!	!LO:TX:t=P:problem:kreska pseudotaktowa	!
8G/	.	8G/J	.	8b\J	.
*	*	*	*	*	*custos:aa
!	!	!	!	!	!LO:LB:g=original
=28-	=28-	=28-	=28-	=28-	=28-
2F/	.	2F/	8r	2a\	8r
.	.	.	8f\L	.	8aa\L
.	.	.	8f\	.	8aa\
.	.	.	8e\J	.	8gg\J
4.B-X\	.	8r	2d\	2r	2ff\
.	.	8B-X\L	.	.	.
.	.	8B-\	.	.	.
8A/	.	8A\J	.	.	.
*custos:G	*	*	*	*	*
!LO:LB:g=original	!	!	!	!	!
=29-	=29-	=29-	=29-	=29-	=29-
2G/	-	2G/	2r	8r	8r
.	.	.	.	8b-X\L	8gg\L
.	.	.	.	8b-\	8gg\
.	.	.	.	8a\J	8ff\J
*	*	*	*	*custos:g	*
!	!	!	!	!LO:LB:g=original	!LO:TX:t=P:problem:kreska pseudotaktowa
4.c\	.	8r	8r	2g/	2ee\
.	.	8cny\L	8e\L	.	.
.	.	8c\	8e\	.	.
8Bny\	.	8Bny\J	8d\J	.	.
=30-	=30-	=30-	=30-	=30-	=30-
2.A/	.	2A/	2c/	8r	8r
.	.	.	.	8cc\L	8ee\L
.	.	.	.	8cc\	8ee\
.	.	.	.	8bny\J	8dd\J
.	.	4r	4r	4a\	4cc\
!LO:TX:t=P:problem:kreska pseudotaktowa	!	!	!	!	!LO:TX:t=P:problem:kreska pseudotaktowa
4A/	.	4A/	4c/	4cc\	4ee\
*	*	*custos:B	*custos:d	*	*
!	!	!LO:LB:g=original	!LO:LB:g=original	!	!
=31-	=31-	=31-	=31-	=31-	=31-
4B\	.	4B\	4d\	4b\	4dd\
4c\	6	4c\	4e\	4a\	4cc\
4d\	6	4d\	4f\	4a\	4b/
4e\	#	4e\	4e\	4g#X/	4b/
=32-	=32-	=32-	=32-	=32-	=32-
2.A/	.	2A/	2e\	8a\L	8cc\L
.	.	.	.	8cc\	8ee\
.	.	.	.	8cc\	8ee\
.	.	.	.	8b\J	8dd\J
.	.	4r	4r	4a\	4cc\
!LO:TX:t=P:problem:kreska pseudotaktowa	!	!	!	!	!LO:TX:t=P:problem:kreska pseudotaktowa
4A/	.	4A/	4c/	4cc\	4ee\
=33-	=33-	=33-	=33-	=33-	=33-
2B\	.	2B\	2d\	2b\	2dd\
2c\	6	2c\	2e\	2a\	2cc\
=34-	=34-	=34-	=34-	=34-	=34-
2d\	6	2d\	2f\	2a\	2b/
!LO:TX:t=P:problem:kreska pseudotaktowa	!	!	!	!	!
2e\	#	2e\	2e\	2g#X/	2b/
=35-	=35-	=35-	=35-	=35-	=35-
1A	.	1A	1e	1a	4a/
.	.	.	.	.	4ee\
.	.	.	.	.	8cc\L
.	.	.	.	.	8a\
.	.	.	.	.	8cc\
.	.	.	.	.	8dd\J
*	*	*	*	*	*custos:ee
!	!	!	!	!	!LO:LB:g=original
=36-	=36-	=36-	=36-	=36-	=36-
2A/	.	4r	1r	0r	4ee\
.	.	4A/	.	.	4cc\
8F/L	.	8F/L	.	.	2ff\
8D/	.	8D/	.	.	.
8F/	.	8F/	.	.	.
!LO:TX:t=P:problem:kreska pseudotaktowa	!	!	!	!	!
8G/J	.	8G/J	.	.	.
=37-	=37-	=37-	=37-	=37-	=37-
4A/	.	4A/	4r	.	4ee\
4F/	.	4F/	4a\	.	4ff\
!	!	!	!	!	!LO:TX:t=P:problem:kreska pseudotaktowa
2B-X\	.	2B-X\	8f\L	.	2dd\
.	.	.	8d\	.	.
.	.	.	8f\	.	.
.	.	.	8g\J	.	.
=38-	=38-	=38-	=38-	=38-	=38-
!	!	!LO:TX:t=P:problem:kreska pseudotaktowa	!	!	!
!LO:TX:t=P:problem:kreska pseudotaktowa	!	!	!	!	!
1A	.	1A	2a\	4r	8cc\L
.	.	.	.	.	8a\
.	.	.	.	4ee\	8cc\
.	.	.	.	.	8dd\J
.	.	.	2a\	8cc\L	2ee\
.	.	.	.	8a\	.
.	.	.	.	8cc\	.
.	.	.	.	8dd\J	.
*	*	*custos:E	*	*	*
!	!	!LO:LB:g=original	!	!	!
=39-	=39-	=39-	=39-	=39-	=39-
1E	3:4#r	2E/	4g#X\	4ee\	1r
.	.	.	2a\	4cc\	.
.	.	4r	.	2b\	.
.	.	4e\	4g#X\	.	.
*	*	*	*	*custos:a	*
!	!	!	!	!LO:LB:g=original	!
=40-	=40-	=40-	=40-	=40-	=40-
1A	.	8c\L	1a	2a\	2r
.	.	8A\	.	.	.
.	.	8c\	.	.	.
.	.	8d\J	.	.	.
.	.	4e\	.	4r	4r
!	!	!	!	!LO:TX:t=P:problem:kreska pseudotaktowa	!LO:TX:t=P:problem:kreska pseudotaktowa
.	.	4c\	.	4cc\	4ee\
*custos:f	*	*	*	*	*
!LO:LB:g=original	!	!	!	!	!
=41-	=41-	=41-	=41-	=41-	=41-
2f\	.	2f\	1r	8a\L	8cc\L
.	.	.	.	8fny\	8a\
.	.	.	.	8a\	8cc\
.	.	.	.	8b\J	8dd\J
4e\	6	4e\	.	4cc#X\	4ee\
4d\	.	4d\	.	2dd\	4ff\
=42-	=42-	=42-	=42-	=42-	=42-
2A/	4#r	2A/	8r	.	2ee\
.	.	.	8a\L	.	.
.	.	.	8a\	4cc#X\	.
.	.	.	8gny\J	.	.
!LO:TX:t=P:problem:kreska pseudotaktowa	!	!	!	!	!
2d\	.	2d\	2f\	4.dd\	8r
.	.	.	.	.	8ff\L
.	.	.	.	.	8ff\
!	!	!	!	!LO:TX:t=P:problem:kreska pseudotaktowa	!
.	.	.	.	8cc#\	8ee\J
*	*	*	*custos:e	*	*
!	!	!	!LO:LB:g=original	!	!
=43-	=43-	=43-	=43-	=43-	=43-
4G/	.	4r	4r	4b\	4dd\
4c\	6	4c\	4e\	2a\	4cc\
4d\	6	4d\	4f\	.	2b/
4e\	#	4e\	4e\	4g#X/	.
=44-	=44-	=44-	=44-	=44-	=44-
!LO:TX:t=P:problem:kreska pseudotaktowa	!	!	!	!	!
1A	.	1A	4c#X/	4a\	1a
.	.	.	4a\	4ccny\	.
.	.	.	4a\	4cc\	.
.	.	.	4a\	4cc\	.
*clefC3	*	*	*	*	*
=45-	=45-	=45-	=45-	=45-	=45-
8f\L	.	0r	8f\L	8a\L	4r
8d\	.	.	8d\	8f\	.
8f\	.	.	8f\	8a\	4aa\
8g\J	.	.	8g\J	8b\J	.
4a\	.	.	4a\	4cc\	4aa\
4f\	.	.	4f\	4a\	4aa\
*	*	*	*	*	*custos:ff
!	!	!	!	!	!LO:LB:g=original
=46-	=46-	=46-	=46-	=46-	=46-
2b-X\	.	.	2b-X\	2dd\	8ff\L
.	.	.	.	.	8dd\
.	.	.	.	.	8ff\
.	.	.	.	.	8gg\J
4a\	#	.	4a\	4cc#X\	4aa\
4d\	.	.	4d\	4dd\	4ff\
*clefC4	*	*	*	*	*
=47-	=47-	=47-	=47-	=47-	=47-
1e	.	2r	0e	4b\	4gg#X\
.	.	.	.	4ccny\	2aa\
.	.	4r	.	2b\	.
!	!	!	!	!	!LO:TX:t=P:problem:# above
.	.	4e\	.	.	4gg#Xi\
*	*	*	*	*custos:a	*
!	!	!	!	!LO:LB:g=original	!
=48-	=48-	=48-	=48-	=48-	=48-
!LO:TX:t=P:problem:kreska pseudotaktowa	!	!	!	!	!
1A	.	8c\L	.	2a\	2aa\
.	.	8A\	.	.	.
.	.	8c\	.	.	.
.	.	8d\J	.	.	.
*	*	*custos:e	*	*	*
!	!	!LO:LB:g=original	!	!	!
.	.	4e\	.	4r	4r
!	!	!	!	!	!LO:TX:t=P:problem:kreska pseudotaktowa
.	.	4c\	.	4cc\	4ee\
=49-	=49-	=49-	=49-	=49-	=49-
2f\	.	2f\	1r	8a\L	8cc\L
.	.	.	.	8f\	8a\
.	.	.	.	8a\	8cc\
.	.	.	.	8b\J	8dd\J
[2e\	6	1e\	.	4cc\	4ee\
.	.	.	.	8b\L	8dd\L
.	.	.	.	8a\J	8cc\J
=50-	=50-	=50-	=50-	=50-	=50-
2e\]	#	.	2r	2g#X/	2b/
!LO:TX:t=P:problem:kreska pseudotaktowa	!	!	!	!	!
2A/	.	2A/	8r	1a\	2cc\
.	.	.	8A/L	.	.
.	.	.	8cny/	.	.
.	.	.	8d/J	.	.
*custos:E	*	*	*	*	*
!LO:LB:g=original	!	!	!	!	!
=51-	=51-	=51-	=51-	=51-	=51-
1E	4#r	1E	2.e\	.	1b
.	.	.	.	2g#X/	.
.	.	.	4d\	.	.
=52-	=52-	=52-	=52-	=52-	=52-
!	!	!	!LO:TX:t=P:problem:kreska pseudotaktowa	!	!
1A	#	1A	1c#X	1a	1a
*	*	*	*custos:a	*	*
!	!	!	!LO:LB:g=original	!	!
=53-	=53-	=53-	=53-	=53-	=53-
*M3/2	*	*M3/2	*M3/2	*M3/2	*M3/2
*met(3)	*	*met(3)	*met(3)	*met(3)	*met(3)
1A	#	1A	2a\	2cc#X\	2ee\
.	.	.	4a\	4cc#\	4ee\
.	.	.	4a\	4cc#\	4ee\
2A/	.	2A\	4a\	4cc#\	4ee\
.	.	.	4a\	4cc#\	4ee\
=54-	=54-	=54-	=54-	=54-	=54-
1D	#	2D/	2a\	1dd	1ff#X
.	.	4D/	4a\	.	.
.	.	4D/	4a\	.	.
!LO:TX:t=P:problem:kreska pseudotaktowa	!	!	!	!	!
2D/	.	4D/	4a\	2r	2r
!	!	!LO:TX:t=P:problem:kreska pseudotaktowa	!	!	!
.	.	4D/	4a\	.	.
*	*	*	*	*	*custos:dd
!	!	!	!	!	!LO:LB:g=original
=55-	=55-	=55-	=55-	=55-	=55-
1G	.	1G	2g\	2b\	2dd\
.	.	.	4g\	4b\	4dd\
.	.	.	4g\	4b\	4dd\
2G/	.	2r	4g\	4b\	4dd\
.	.	.	4g\	4b\	4dd\
=56-	=56-	=56-	=56-	=56-	=56-
1C	.	2C/	2e\	1ccny	1ee
.	.	4C/	4e\	.	.
.	.	4C/	4e\	.	.
!LO:TX:t=P:problem:kreska pseudotaktowa	!	!	!	!	!
2C/	.	4C/	4e\	2r	2r
.	.	4C/	4e\	.	.
*	*	*custos:F	*	*	*
!	!	!LO:LB:g=original	!	!	!
=57-	=57-	=57-	=57-	=57-	=57-
1F	.	1F	2f\	2a\	2cc\
.	.	.	4f\	4a\	4cc\
.	.	.	4f\	4a\	4cc\
*	*	*	*	*custos:a	*
!	!	!	!	!LO:LB:g=original	!
2F/	.	2F/	4f\	4a\	4cc\
.	.	.	4f\	4a\	4cc\
=58-	=58-	=58-	=58-	=58-	=58-
1D	#	1D	2a\	2.f#X/	1dd
.	.	.	2d\	.	.
.	.	.	.	4gny/	.
!LO:TX:t=P:problem:kreska pseudotaktowa	!	!LO:TX:t=P:problem:kreska pseudotaktowa	!	!	!
2AA/	.	2AA/	2e\	2a\	2cc\
=59-	=59-	=59-	=59-	=59-	=59-
1E	#	1E	1e	1g#X	1b
2E/	.	2E/	2e\	2g#/	2b/
=60-	=60-	=60-	=60-	=60-	=60-
1A	#	2A/	2c#X/	1a	1a
.	.	4A/	4c#/	.	.
.	.	4A/	4c#/	.	.
!LO:TX:t=P:problem:kreska pseudotaktowa	!	!	!	!	!
2A/	.	4A/	4c#/	2r	2r
!	!	!LO:TX:t=P:problem:kreska pseudotaktowa	!	!	!
.	.	4A/	4c#/	.	.
*	*	*	*custos:d	*	*
!	!	!	!LO:LB:g=original	!	!
=61-	=61-	=61-	=61-	=61-	=61-
1d	#	1d	1d	2f#X/	2aa\
.	.	.	.	4f#/	4aa\
.	.	.	.	4f#/	4aa\yy
2G/	.	4G/	2r	2gny/	2bbny\
!	!	!LO:TX:t=P:problem:kreska pseudotaktowa	!	!	!
.	.	4G/	.	.	.
*custos:c	*	*	*	*	*
!LO:LB:g=original	!	!	!	!	!
=62-	=62-	=62-	=62-	=62-	=62-
1c	.	1c	2e\	2g/	2ggny\
.	.	.	4e\	4cc\	4gg\
.	.	.	4e\	4cc\	4gg\
!LO:TX:t=P:problem:kreska pseudotaktowa	!	!	!	!	!
2F/	.	4F/	2f\	2cc\	2aa\
.	.	4F/	.	.	.
=63-	=63-	=63-	=63-	=63-	=63-
1B-X	.	1B-X	2d\	2b-X\	2ffny\
.	.	.	4d\	4b-\	4ff\
.	.	.	4d\	4b-\	4ff\
2G/	-	4G/	2d\	2b-\	2gg\
.	.	4G/	.	.	.
=64-	=64-	=64-	=64-	=64-	=64-
1A	#	1A	2c#X/	2a\	2ee\
.	.	.	4c#/	4a\	4ee\
.	.	.	4c#/	4a\	4ee\
!LO:TX:t=P:problem:kreska pseudotaktowa	!	!	!	!	!
2D/	#	4D/	2d\	2a\	2ff#X\
.	.	4D/	.	.	.
*	*	*custos:G	*	*	*
!	!	!LO:LB:g=original	!	!	!
=65-	=65-	=65-	=65-	=65-	=65-
1G	.	1G	2d\	2bny\	2dd\
.	.	.	4g\	4b\	4dd\
.	.	.	4g\	4b\	4dd\
2C/	.	4C/	2g\	2cc\	2ee\
.	.	4C/	.	.	.
*	*	*	*	*custos:a	*custos:cc
!	!	!	!	!LO:LB:g=original	!LO:LB:g=original
=66-	=66-	=66-	=66-	=66-	=66-
1F	.	1F	2f\	2a\	2cc\
.	.	.	4f\	4a\	4cc\
.	.	.	4f\	4a\	4cc\
!LO:TX:t=P:problem:kreska pseudotaktowa	!	!	!	!	!
2D/	.	4D/	2f\	2a\	2dd\
.	.	4D/	.	.	.
=67-	=67-	=67-	=67-	=67-	=67-
1E	#	1E	1e	1g#X	1b
2E/	.	2E/	2e\	2g#/	2b/
=68-	=68-	=68-	=68-	=68-	=68-
1A	#	1A	2c#X/	2a\	2a/
.	.	.	4a\	4cc#X\	4ee\
.	.	.	4a\	4cc#\	4ee\
!LO:TX:t=P:problem:kreska pseudotaktowa	!	!	!	!	!
2D/	#	4D/	2a\	2dd\	2ff#X\
.	.	4D/	.	.	.
*	*	*	*custos:g	*	*
!	!	!	!LO:LB:g=original	!	!
=69-	=69-	=69-	=69-	=69-	=69-
1G	.	1G	2g\	2b\	2dd\
.	.	.	4g\	4b\	4dd\
.	.	.	4g\	4b\	4dd\
2C/	.	4C/	2g\	2ccny\	2ee\
.	.	4C/	.	.	.
=70-	=70-	=70-	=70-	=70-	=70-
1F	.	1F	2f\	2a\	2cc\
.	.	.	4f\	4a\	4cc\
.	.	.	4f\	4a\	4cc\
!LO:TX:t=P:problem:kreska pseudotaktowa	!	!	!	!	!
2D/	.	4D/	2f\	2a\	2dd\
.	.	4D/	.	.	.
=71-	=71-	=71-	=71-	=71-	=71-
1E	.	1E	1e	1g#X	1b
2E/	.	2E/	2e\	2g#/	2b/
*custos:AA	*	*	*	*	*
!LO:LB:g=original	!	!	!	!	!
=72-	=72-	=72-	=72-	=72-	=72-
*M2/2	*	*M2/2	*M2/2	*M2/2	*M2/2
*met(C|)	*	*met(C|)	*met(C|)	*met(C|)	*met(C|)
0AA	.	1AA	1c#X	1a	1a
=73-	=73-	=73-	=73-	=73-	=73-
.	.	00r	0r	1r	4ee\
.	.	.	.	.	8ee\L
.	.	.	.	.	8ee\J
.	.	.	.	.	4cc\
.	.	.	.	.	4a/
*clefC1	*	*	*	*	*
=74-	=74-	=74-	=74-	=74-	=74-
4a\	.	.	.	4a\	4r
8a\L	.	.	.	8a\L	4ee\
8a\J	.	.	.	8a\J	.
4f/	.	.	.	4fny/	2ffny\
4d/	.	.	.	4d/	.
*	*	*	*	*custos:a	*custos:ee
!	!	!	!	!LO:LB:g=original	!LO:LB:g=original
=75-	=75-	=75-	=75-	=75-	=75-
2a\	.	.	1r	4r	4ee\
.	.	.	.	4a\	2aa\
2b-X\	7:6	.	.	2b-X\	.
.	.	.	.	.	4gg\
=76-	=76-	=76-	=76-	=76-	=76-
4a\	.	.	2r	4a\	4aa\
4dd\	.	.	.	2dd\	4ff\
*clefC3	*	*	*	*	*
4a\	4	.	4a\	.	2ee\
!	!	!	!	!LO:TX:t=P:problem:# above	!
8a\L	#	.	8a\L	4cc#Xi\	.
!LO:TX:t=P:problem:kreska pseudotaktowa	!	!	!	!	!
8a\J	.	.	8a\J	.	.
=77-	=77-	=77-	=77-	=77-	=77-
4f\	6	0r	4f\	2dd\	4r
4d\	.	.	4d\	.	4ff\
2a\	.	.	2a\	4r	4ee\
.	.	.	.	4cc#X\	2aa\
=78-	=78-	=78-	=78-	=78-	=78-
2b-X\	7:6	.	2b-X\	2dd\	.
.	.	.	.	.	4gg\
!LO:TX:t=P:problem:kreska pseudotaktowa	!	!	!	!	!LO:TX:t=P:problem:kreska pseudotaktowa
2a\	.	.	1a\	2ccny\	2aa\
*clefC4	*	*custos:e	*	*	*
!	!	!LO:LB:g=original	!	!	!
=79-	=79-	=79-	=79-	=79-	=79-
2e\	4	2r	.	1bny	2r
!	!	!	!LO:TX:t=P:problem: ligatura od góry i od dołu	!	!
4e\	#	4e\	[[4g#X\	.	4r
8e\L	.	8e\L	4g#]]	.	4ee\
8e\J	.	8e\J	.	.	.
*custos:c	*	*	*	*	*
!LO:LB:g=original	!	!	!	!	!
=80-	=80-	=80-	=80-	=80-	=80-
4c\	.	4c\	4r	2a\	8ee\L
.	.	.	.	.	8ee\J
4A/	.	4A/	4a\	.	4cc\
4d\	.	4r	4f\	2r	4a/
!LO:TX:t=P:problem:kreska pseudotaktowa	!	!	!	!	!
4e\	.	4e\	4gny\	.	2ee\
*	*	*	*custos:a	*	*
!	!	!	!LO:LB:g=original	!	!
=81-	=81-	=81-	=81-	=81-	=81-
2f\	7:6	2f\	2a\	4r	.
.	.	.	.	4a\	4dd\
2e\	5:6	2e\	2g\	4b\	2ee\
.	.	.	.	4cc\	.
=82-	=82-	=82-	=82-	=82-	=82-
2d\	.	2d\	4f\	2dd\	2ff\
.	.	.	4g\	.	.
!LO:TX:t=P:problem:kreska pseudotaktowa	!	!	!	!	!
2A/	.	2A/	1a\	2cc\	2ee\
=83-	=83-	=83-	=83-	=83-	=83-
1e	4#r	1e	.	1b	2ee\
.	.	.	2g#X\	.	8r
.	.	.	.	.	8ee\L
.	.	.	.	.	8ee\
.	.	.	.	.	8dd\J
=84-	=84-	=84-	=84-	=84-	=84-
2A/	#	2A/	2a\	8r	2cc#X\
.	.	.	.	8a\L	.
.	.	.	.	8a\	.
.	.	.	.	8gny\J	.
*	*	*	*	*	*custos:dd
!LO:TX:t=P:problem:kreska pseudotaktowa	!	!	!	!	!LO:LB:g=original
2d\	#	2r	2r	2f#X/	8r
.	.	.	.	.	8dd\L
.	.	.	.	.	8dd\
.	.	.	.	.	8cc#\J
=85-	=85-	=85-	=85-	=85-	=85-
4e\	#	1r	2r	4g#X/	4b/
4A\	.	.	.	2a\	4ccny\
2e\	4#r	.	8r	.	2b/
.	.	.	8e\L	.	.
!	!	!	!	!LO:TX:t=P:problem:# below	!
.	.	.	8e\	4g#X/	.
.	.	.	8d\J	.	.
=86-	=86-	=86-	=86-	=86-	=86-
4.A/	.	8r	2c#X/	1a	1a
.	.	8A/L	.	.	.
.	.	8A/	.	.	.
8G/	.	8G/J	.	.	.
!LO:TX:t=P:problem:kreska pseudotaktowa	!	!	!	!	!
2F#X/	6	2F#X/	8r	.	.
.	.	.	8d\L	.	.
.	.	.	8d\	.	.
.	.	.	8c#\J	.	.
=87-	=87-	=87-	=87-	=87-	=87-
4G#X/	.	4G#X/	4B/	1r	2r
2A/	.	2A/	4cny/	.	.
.	.	.	2B/	.	8r
.	.	.	.	.	8ee\L
4G#X/	6	4G#X/	.	.	8ee\
.	.	.	.	.	8dd\J
*	*	*custos:A	*	*custos:A	*
!	!	!LO:LB:g=original	!	!LO:LB:g=original	!
=88-	=88-	=88-	=88-	=88-	=88-
2A/	#	2A/	2A/	8r	2cc#X\
.	.	.	.	8a\L	.
.	.	.	.	8a\	.
.	.	.	.	8gny\J	.
!LO:TX:t=P:problem:kreska pseudotaktowa	!	!	!	!	!
2D/	#	2r	2r	2f#X/	8r
.	.	.	.	.	8dd\L
.	.	.	.	.	8dd\
.	.	.	.	.	8cc#\J
=89-	=89-	=89-	=89-	=89-	=89-
4E/	#	4r	2r	4g#X/	4b/
4C/	6	4C/	.	2a\	4ccny\
4D/	6	4D/	8r	.	2b/
.	.	.	8B/	.	.
!	!	!	!	!LO:TX:t=P:problem:# below	!
4E/	#	4E/	8e\L	4g#X/	.
.	.	.	8d\J	.	.
=90-	=90-	=90-	=90-	=90-	=90-
4.A/	.	8AA/L	2c#X/	2a\	2a/
.	.	8A/	.	.	.
.	.	8A/	.	.	.
8Gny/	.	8Gny/J	.	.	.
!LO:TX:t=P:problem:kreska pseudotaktowa	!	!	!	!	!
2F#X/	6	2F#X/	2d\	2.dd\	4r
.	.	.	.	.	4aa\
*	*	*	*custos:g	*	*
!	!	!	!LO:LB:g=original	!	!
=91-	=91-	=91-	=91-	=91-	=91-
2G/	-	2G/	8r	.	2bb-X\
.	.	.	8gny\L	.	.
.	.	.	8g\	4dd\	.
.	.	.	8f\J	.	.
2A/	#	2A/	8e\L	2cc#X\	2aa\
.	.	.	8a\	.	.
.	.	.	8a\	.	.
.	.	.	8g\J	.	.
=92-	=92-	=92-	=92-	=92-	=92-
!LO:TX:t=P:problem:kreska pseudotaktowa	!	!	!	!	!
1D	#	1D	4.f#X\	8dd\L	2aa\
.	.	.	.	8a\	.
.	.	.	.	8a\	.
.	.	.	8e\	8gny\J	.
.	.	.	2d\	2f#X/	8r
.	.	.	.	.	8aa\L
.	.	.	.	.	8aa\
.	.	.	.	.	8gg\J
=93-	=93-	=93-	=93-	=93-	=93-
2d\	#	1r	2d\	8r	2ff#X\
.	.	.	.	8dd\L	.
.	.	.	.	8dd\	.
.	.	.	.	8ccny\J	.
2G/	.	.	2r	2b\	8r
.	.	.	.	.	8gg\L
.	.	.	.	.	8gg\
.	.	.	.	.	8ffny\J
*custos:A	*	*	*	*	*
!LO:LB:g=original	!	!	!	!	!
=94-	=94-	=94-	=94-	=94-	=94-
4A/	#	4r	2r	4cc#X\	4ee\
4Fny/	6	4F/	.	2dd\	4ff\
*	*	*	*	*	*custos:ee
!	!	!	!	!	!LO:LB:g=original
4G/	6	4G/	8r	.	2ee\
.	.	.	8e\L	.	.
!LO:TX:t=P:problem:kreska pseudotaktowa	!	!	!	!LO:TX:t=P:problem:# above	!
4A/	#	4A/	8a\	4cc#Xi\	.
.	.	.	8g\J	.	.
=95-	=95-	=95-	=95-	=95-	=95-
!	!	!LO:TX:t=P:problem:mixed beam	!	!	!
4.d\	#	8D/L	2f#X\	1dd	1dd
.	.	8d\	.	.	.
.	.	8d\	.	.	.
8c\	6	8c\J	.	.	.
2Bny\	6	2Bny\	8r	.	.
.	.	.	8g\L	.	.
.	.	.	8g\	.	.
.	.	.	8f#\J	.	.
=96-	=96-	=96-	=96-	=96-	=96-
4c#X\	6	4c#X\	4e\	2r	4r
2d\	#	2d\	4fny\	.	4ff\
.	.	.	2e\	8r	4gg\
.	.	.	.	8e/L	.
4c#X\	#	4c#X\	.	8a/	4aa\
.	.	.	.	8g/J	.
*	*	*custos:d	*	*	*
!	!	!LO:LB:g=original	!	!	!
=97-	=97-	=97-	=97-	=97-	=97-
2d\	.	1d	1d	2f#X/	8dd\L
.	.	.	.	.	8aa\
.	.	.	.	.	8aa\
.	.	.	.	.	8gg\J
*	*	*	*	*custos:dd	*
!LO:TX:t=P:problem:kreska pseudotaktowa	!	!	!	!LO:LB:g=original	!
2D/	.	.	.	8r	2ff#X\
.	.	.	.	8dd\L	.
.	.	.	.	8dd\	.
.	.	.	.	8ccny\J	.
=98-	=98-	=98-	=98-	=98-	=98-
4.G/	.	8r	2r	2b\	2r
.	.	8G/L	.	.	.
.	.	8G/	.	.	.
8F/	.	8F/J	.	.	.
!	!	!	!	!LO:TX:t=P:problem:kreska pseudotaktowa	!
2E/	.	2E/	8r	2r	8r
.	.	.	8e\L	.	8gg\L
.	.	.	8e\	.	8gg\
.	.	.	8d\J	.	8ffny\J
*	*	*	*custos:c	*	*
!	!	!	!LO:LB:g=original	!	!
=99-	=99-	=99-	=99-	=99-	=99-
2e\	.	2r	8cny\L	2r	2ee\
.	.	.	8e\	.	.
.	.	.	8e\	.	.
.	.	.	8d\J	.	.
4.A/	.	8r	2c/	8r	2r
.	.	8A/L	.	8cc\L	.
.	.	8A/	.	8cc\	.
!LO:TX:t=P:problem:kreska pseudotaktowa	!	!	!	!	!
8G/	.	8G/J	.	8b\J	.
=100-	=100-	=100-	=100-	=100-	=100-
2D/	.	2F/	8r	2a\	8r
.	.	.	8f\L	.	8aa\L
.	.	.	8f\	.	8aa\
.	.	.	8e\J	.	8gg\J
!	!	!	!	!LO:TX:t=P:problem:kreska pseudotaktowa	!
4.B-X\	.	8r	2d\	2r	2ff\
.	.	8B-X\L	.	.	.
.	.	8B-\	.	.	.
8A/	.	8A\J	.	.	.
=101-	=101-	=101-	=101-	=101-	=101-
2G/	-	2G/	2r	8r	8r
.	.	.	.	8b-X\L	8gg\L
.	.	.	.	8b-\	8gg\
.	.	.	.	8a\J	8ff\J
!	!	!	!	!LO:TX:t=P:problem:kreska pseudotaktowa	!
4.cny\	.	8r	8r	2g/	2ee\
.	.	8cny\L	8e\L	.	.
.	.	8c\	8e\	.	.
!LO:TX:t=P:problem:kreska pseudotaktowa	!	!	!	!	!
8Bny\	.	8Bny\J	8d\J	.	.
=102-	=102-	=102-	=102-	=102-	=102-
2.A/	.	2A/	2c/	8r	8r
.	.	.	.	8cc\L	8ee\L
.	.	.	.	8cc\	8ee\
.	.	.	.	8bny\J	8dd\J
.	.	4r	4r	4a\	4cc\
!	!	!	!	!LO:TX:t=P:problem:kreska pseudotaktowa	!
4A/	.	4A/	4c/	4cc\	4ee\
*custos:B	*	*	*	*	*custos:dd
!LO:LB:g=original	!	!	!	!	!LO:LB:g=original
=103-	=103-	=103-	=103-	=103-	=103-
4B\	.	4B\	4d\	4b\	4dd\
4c\	6	4c\	4e\	2a\	4cc\
4d\	6	4d\	4f\	.	4b/
!LO:TX:t=P:problem:kreska pseudotaktowa	!	!	!	!	!
4e\	#	4e\	4e\	4g#X/	4b/
=104-	=104-	=104-	=104-	=104-	=104-
!	!	!	!	!	!LO:TX:t=P:problem:mixed beam
2.A/	.	2A/	2e\	8a\L	8a/L
.	.	.	.	8cc\	8ee\
.	.	.	.	8cc\	8ee\
.	.	.	.	8b\J	8dd\J
.	.	4r	4r	4a\	4cc\
4A/	.	4A/	4c/	4cc\	4ee\
*	*	*custos:B	*	*	*
!	!	!LO:LB:g=original	!	!	!
=105-	=105-	=105-	=105-	=105-	=105-
2B\	.	2B\	2d\	2b\	2dd\
!LO:TX:t=P:problem:kreska pseudotaktowa	!	!	!	!	!
2c\	6	2c\	2e\	2a\	2cc\
=106-	=106-	=106-	=106-	=106-	=106-
2d\	6	2d\	2f\	2a\	2b/
!	!	!	!	!LO:TX:t=P:problem:# below	!
2e\	#	2e\	2e\	2g#X/	2b/
!	!	!	!	!LO:LB:g=original	!
=107-	=107-	=107-	=107-	=107-	=107-
!LO:TX:t=P:problem:kreska pseudotaktowa	!	!	!	!	!
1A	.	1A	8r	2a\	1a
.	.	.	8e\L	.	.
.	.	.	8e\	.	.
.	.	.	8d\J	.	.
*	*	*	*custos:c	*	*
!	!	!	!LO:LB:g=original	!	!
.	.	.	4.c/	8r	.
.	.	.	.	8ee\L	.
.	.	.	.	8ee\	.
!	!	!	!	!LO:TX:t=P:problem:kreska pseudotaktowa	!
.	.	.	8B/	8dd\J	.
=108-	=108-	=108-	=108-	=108-	=108-
4.A/	.	8r	2A/	4.cc\	2r
.	.	8A/L	.	.	.
.	.	8A/	.	.	.
8G/	.	8G/J	.	8b\	.
4.F/	.	4.F/	2r	2a\	8r
.	.	.	.	.	8aa\L
.	.	.	.	.	8aa\
8E/	.	8E/	.	.	8gg\J
=109-	=109-	=109-	=109-	=109-	=109-
00D	.	0D	8r	2r	4.ff\
.	.	.	8a\L	.	.
.	.	.	8a\	.	.
.	.	.	8g\J	.	8ee\
.	.	.	4.f\	8r	2dd\
.	.	.	.	8a\L	.
.	.	.	.	8a\	.
!	!	!	!	!LO:TX:t=P:problem:kreska pseudotaktowa	!
.	.	.	8e\	8gny\J	.
=110-	=110-	=110-	=110-	=110-	=110-
.	.	.	2d\	4.fny/	8r
.	.	.	.	.	8aa\L
.	.	.	.	.	8aa\
.	.	.	.	8e/	8gg\J
*	*	*	*	*	*custos:ff
!	!	!	!	!	!LO:LB:g=original
.	.	.	8r	2d/	4.ff\
.	.	.	8a\L	.	.
.	.	.	8a\	.	.
.	.	.	8g\J	.	8ee\
=111-	=111-	=111-	=111-	=111-	=111-
.	.	0D	4.f\	8r	1.dd
.	.	.	.	8a\L	.
.	.	.	.	8a\	.
.	.	.	8e\	8g\J	.
.	.	.	4.d\	4.f/	.
.	.	.	8e\	8g/	.
=112-	=112-	=112-	=112-	=112-	=112-
.	.	.	1f	1a	.
.	.	.	.	.	4cc#X\
.	.	.	.	.	4b/
=113-	=113-	=113-	=113-	=113-	=113-
!LO:MO:mod=0A;	!	!LO:MO:mod=0A;	!LO:MO:mod=0e;	!LO:MO:mod=0a;	!LO:MO:mod=0cc#;
0Al;;	.	0Al/;;	0el;;	0al;;	0cc#Xl;;
==	==	==	==	==	==
*-	*-	*-	*-	*-	*-
!!!system-decoration: [(s1,s2,s3,s4)]s5
!!!RDF**kern: i = editorial accidental
!!!RDF**kern: l = terminal long
!!!ENC: Anastazja Marusiak
!!!END: 2022-11-07
!!!ENC: Jan Barakat
!!!END: 2022-11-25
!!!filter-modern: sic -sq | autostem -r | tie -si | shed -e "s/^custos:/Xcustos:/I" | shed -e "s/^(\d+[\/\\]right)/$1yy/I; s/^(\d+[\/\\]left)/$1yy/I" | shed -e "s/-//B" | shed -e "s/TX(.*):t=P:/tx$1:t=P:/LG" | modori -m |
!!!YEC: Copyright 2022 Narodowy Instytut Fryderyka Chopina (https://polishscores.org)
!!!YEM: License CC-BY-4.0 (https://creativecommons.org/licenses/by/4.0)
